src/images/icons/magnifying-glass-circle.svg

<svg width="24" height="24" viewBox="0 0 24 24" fill="none" xmlns="http://www.w3.org/2000/svg">
<circle cx="12" cy="12" r="12" fill="white" fill-opacity="0.7"/>
<path fill-rule="evenodd" clip-rule="evenodd" d="M11.4947 6.99837C10.9043 6.99837 10.3197 7.11466 9.7743 7.34061C9.22886 7.56655 8.73326 7.89772 8.3158 8.3152C7.89833 8.73269 7.56718 9.22832 7.34126 9.77379C7.11533 10.3193 6.99904 10.9039 6.99904 11.4943C6.99904 12.0847 7.11533 12.6694 7.34126 13.2148C7.56718 13.7603 7.89833 14.2559 8.3158 14.6734C8.73326 15.0909 9.22886 15.4221 9.7743 15.648C10.3197 15.874 10.9043 15.9902 11.4947 15.9902C12.6871 15.9902 13.8306 15.5166 14.6737 14.6734C15.5168 13.8303 15.9904 12.6867 15.9904 11.4943C15.9904 10.3019 15.5168 9.15835 14.6737 8.3152C13.8306 7.47205 12.6871 6.99837 11.4947 6.99837ZM6 11.4943C6.00012 10.6118 6.21276 9.74238 6.61993 8.95947C7.02711 8.17656 7.61684 7.50324 8.33925 6.99645C9.06165 6.48967 9.89548 6.16434 10.7702 6.04798C11.6449 5.93162 12.5348 6.02765 13.3646 6.32795C14.1943 6.62825 14.9395 7.12398 15.5372 7.77322C16.1349 8.42246 16.5674 9.20609 16.7982 10.0578C17.029 10.9096 17.0513 11.8044 16.8631 12.6666C16.675 13.5288 16.282 14.333 15.7173 15.0111L18.841 18.135C18.8901 18.1807 18.9295 18.2359 18.9568 18.2971C18.9841 18.3584 18.9987 18.4246 18.9999 18.4916C19.0011 18.5587 18.9888 18.6253 18.9636 18.6875C18.9385 18.7497 18.9011 18.8062 18.8537 18.8537C18.8063 18.9011 18.7498 18.9385 18.6876 18.9636C18.6254 18.9888 18.5587 19.0011 18.4917 18.9999C18.4246 18.9987 18.3585 18.9841 18.2972 18.9568C18.2359 18.9295 18.1808 18.8901 18.135 18.841L15.0114 15.7172C14.2089 16.3856 13.2327 16.8114 12.1969 16.9449C11.1612 17.0784 10.1089 16.9139 9.16324 16.4708C8.21761 16.0276 7.41783 15.3242 6.8576 14.4428C6.29737 13.5614 5.99989 12.5387 6 11.4943ZM11.4947 8.99657C11.6272 8.99657 11.7543 9.0492 11.8479 9.14288C11.9416 9.23657 11.9942 9.36363 11.9942 9.49612V10.9948H13.4928C13.6253 10.9948 13.7523 11.0474 13.846 11.1411C13.9397 11.2348 13.9923 11.3618 13.9923 11.4943C13.9923 11.6268 13.9397 11.7539 13.846 11.8475C13.7523 11.9412 13.6253 11.9939 13.4928 11.9939H11.9942V13.4925C11.9942 13.625 11.9416 13.7521 11.8479 13.8457C11.7543 13.9394 11.6272 13.9921 11.4947 13.9921C11.3622 13.9921 11.2352 13.9394 11.1415 13.8457C11.0478 13.7521 10.9952 13.625 10.9952 13.4925V11.9939H9.49665C9.36416 11.9939 9.23711 11.9412 9.14343 11.8475C9.04975 11.7539 8.99712 11.6268 8.99712 11.4943C8.99712 11.3618 9.04975 11.2348 9.14343 11.1411C9.23711 11.0474 9.36416 10.9948 9.49665 10.9948H10.9952V9.49612C10.9952 9.36363 11.0478 9.23657 11.1415 9.14288C11.2352 9.0492 11.3622 8.99657 11.4947 8.99657Z" fill="#1F2937"/>
</svg>

<svg width="24" height="24" fill="none" xmlns="http://www.w3.org/2000/svg"><circle cx="12" cy="12" r="12" fill="#fff" fill-opacity=".7"/><path fill-rule="evenodd" clip-rule="evenodd" d="M11.495 6.998a4.495 4.495 0 1 0 0 8.99 4.495 4.495 0 0 0 0-8.99zM6 11.494a5.495 5.495 0 1 1 9.717 3.517l3.124 3.124a.5.5 0 1 1-.706.706l-3.124-3.124A5.495 5.495 0 0 1 6 11.494zm5.495-2.497a.5.5 0 0 1 .5.5v1.498h1.498a.5.5 0 1 1 0 .999h-1.499v1.498a.5.5 0 1 1-.999 0v-1.498H9.497a.5.5 0 0 1 0-1h1.498V9.497a.5.5 0 0 1 .5-.5z" fill="#1F2937"/></svg>
